X: 136
T: The Pipe On The Hob
R: jig
M: 6/8
L: 1/8
K: Dmix
ded A2G|F2D DED|EDE cBc|E2D DFA|
dcB cBA|BAG A2G|EDE cBc|E2D D3:|
|:f2d d^cd|f2d d^cd|edB c2d|ede age|
[1 f2d d^cd|f2d d^cd|ede age|ed^c d2e:|
[2 ~f3 gfg|agf gfe|fed eag|ed^c d2A||

